X: 2
T: Bloomsbury Market
O: John Walsh, 1740
S: Colin Hume's website, www.colinhume.com
%Q: 1/4=96
M: 4/4
L: 1/8
K: G
"A"[|] G |\
"G"dBAG G2D2 | "/"DEDB, D3D | "G"DGGF "C"E2G2 | "Am"c>dcB "D"A3B |
"C"cege "G"dBd2 | "G"GBdB "Am"AGE2 | "C"e3d "Em"e{f}gGB | "Am"cB"D"AG "G"G3 :|
"B"|: d |\
"Em"g2g{a}b g3e | "G"gedB "D"A3G | "Em"EGGA "G"B2AG | "C"EGGA "Em"B2AG |
"G"d3e dedB | "Am"ABcd "C(Em)"e3d "I"| "Am"e3d "Em"efgB | "Am"cB"D"AG "G"G3 :|
%%begintext align
%% The first man turns the second woman with the right-hand,
%% the second with his left-hand,
%% then the third with the right-hand,
%% then cast up to his own place .|
%% Then his Partner does the same :|
%% Then the first man and woman Hey with the second man,
%% lead down the middle and cast up and turn,
%% then the first couple Hey with the second woman and cast off :|
%% [DMDfD]
%%endtext

%%sep 1 1 500

